packages/core/src/svgs/tokens/branded/DEFIT.svg

<svg width="24" height="24" viewBox="0 0 24 24" fill="none" xmlns="http://www.w3.org/2000/svg">
<path fill-rule="evenodd" clip-rule="evenodd" d="M14.456 6.59377H12.7152L13.1747 4.9719H11.4176L10.8932 6.59377H3.36237L4.74638 8.55624L2 17.4062H7.50897L6.98456 19.0281H8.81728L9.2768 17.4062H11.0717L10.5526 19.0281H12.38L12.845 17.4062H17.2618C17.7825 17.4046 18.2891 17.2371 18.7082 16.9279C19.1271 16.6187 19.4367 16.1841 19.5919 15.6871L21.9436 8.18861C22.0011 8.0055 22.0149 7.81146 21.9838 7.62208C21.9527 7.4327 21.8776 7.25325 21.7646 7.09815C21.6516 6.94304 21.5037 6.81662 21.3329 6.72902C21.1621 6.64143 20.9732 6.59511 20.7813 6.59377H16.2725L16.732 4.9719H14.9749L14.4505 6.59377H14.456ZM14.4398 14.7032L16.1698 9.29689H9.4119L8.89296 10.9188H11.2447L10.6716 12.5407H8.36855L7.67655 14.7032H14.4398Z" fill="#037CFF"/>
</svg>

<svg xmlns="http://www.w3.org/2000/svg" width="24" height="24" fill="none" viewBox="0 0 24 24">
    <path fill="#037CFF" fill-rule="evenodd" d="M14.456 6.594h-1.74l.459-1.622h-1.757l-.525 1.622h-7.53l1.383 1.962L2 17.406h5.509l-.524 1.622h1.832l.46-1.622h1.795l-.52 1.622h1.828l.465-1.622h4.417a2.45 2.45 0 0 0 2.33-1.719l2.352-7.498a1.227 1.227 0 0 0-1.163-1.595h-4.508l.459-1.622h-1.757l-.524 1.622zm-.016 8.11 1.73-5.407H9.412l-.519 1.622h2.352l-.573 1.622H8.369l-.692 2.162z" clip-rule="evenodd"/>
</svg>
